svgs/sharp-regular/tv-music.svg

<svg xmlns="http://www.w3.org/2000/svg" viewBox="0 0 640 512"><!--! Font Awesome Pro 6.6.0 by @fontawesome - https://fontawesome.com License - https://fontawesome.com/license (Commercial License) Copyright 2024 Fonticons, Inc. --><path d="M592 48l0 320L48 368 48 48l544 0zM48 0L0 0 0 48 0 368l0 48 48 0 544 0 48 0 0-48 0-320 0-48L592 0 48 0zM96 464l0 48 24 0 400 0 24 0 0-48-24 0-400 0-24 0zM416 96l0-23.1L394.4 81l-128 48L256 132.9l0 11.1 0 32 0 81.8c-5-1.2-10.4-1.8-16-1.8c-26.5 0-48 14.3-48 32s21.5 32 48 32s48-14.3 48-32l0-100.9 96-36 0 74.7c-5-1.2-10.4-1.8-16-1.8c-26.5 0-48 14.3-48 32s21.5 32 48 32s48-14.3 48-32l0-128 0-32z"/></svg>

<svg xmlns="http://www.w3.org/2000/svg" viewBox="0 0 640 512"><!--! Font Awesome Pro 6.4.2 by @fontawesome - https://fontawesome.com License - https://fontawesome.com/license (Commercial License) Copyright 2023 Fonticons, Inc. --><path d="M592 48V368H48V48H592zM48 0H0V48 368v48H48 592h48V368 48 0H592 48zM96 464v48h24H520h24V464H520 120 96zM416 96V72.9L394.4 81l-128 48L256 132.9V144v32 81.8c-5-1.2-10.4-1.8-16-1.8c-26.5 0-48 14.3-48 32s21.5 32 48 32s48-14.3 48-32V187.1l96-36v74.7c-5-1.2-10.4-1.8-16-1.8c-26.5 0-48 14.3-48 32s21.5 32 48 32s48-14.3 48-32V128 96z"/></svg>
